Numix-Circle/48x48/apps/pybitmessage.svg

<?xml version="1.0" encoding="UTF-8" standalone="no"?>
<svg
   xmlns:dc="http://purl.org/dc/elements/1.1/"
   xmlns:cc="http://creativecommons.org/ns#"
   xmlns:rdf="http://www.w3.org/1999/02/22-rdf-syntax-ns#"
   xmlns:svg="http://www.w3.org/2000/svg"
   xmlns="http://www.w3.org/2000/svg"
   xmlns:xlink="http://www.w3.org/1999/xlink"
   xmlns:sodipodi="http://sodipodi.sourceforge.net/DTD/sodipodi-0.dtd"
   xmlns:inkscape="http://www.inkscape.org/namespaces/inkscape"
   viewBox="0 0 48 48"
   id="svg2"
   version="1.1"
   inkscape:version="0.48.5 r10040"
   width="100%"
   height="100%"
   sodipodi:docname="pybitmessage.svg">
  <metadata
     id="metadata61">
    <rdf:RDF>
      <cc:Work
         rdf:about="">
        <dc:format>image/svg+xml</dc:format>
        <dc:type
           rdf:resource="http://purl.org/dc/dcmitype/StillImage" />
        <dc:title />
      </cc:Work>
    </rdf:RDF>
  </metadata>
  <sodipodi:namedview
     pagecolor="#ffffff"
     bordercolor="#666666"
     borderopacity="1"
     objecttolerance="10"
     gridtolerance="10"
     guidetolerance="10"
     inkscape:pageopacity="0"
     inkscape:pageshadow="2"
     inkscape:window-width="1280"
     inkscape:window-height="998"
     id="namedview59"
     showgrid="false"
     inkscape:zoom="2.828427"
     inkscape:cx="-18.475835"
     inkscape:cy="-54.777673"
     inkscape:window-x="0"
     inkscape:window-y="0"
     inkscape:window-maximized="1"
     inkscape:current-layer="svg2">
    <inkscape:grid
       type="xygrid"
       id="grid3040" />
  </sodipodi:namedview>
  <defs
     id="defs4">
    <linearGradient
       id="linearGradient3836">
      <stop
         style="stop-color:#62b890;stop-opacity:1;"
         offset="0"
         id="stop3838" />
      <stop
         style="stop-color:#70be9a;stop-opacity:1;"
         offset="1"
         id="stop3840" />
    </linearGradient>
    <linearGradient
       id="linearGradient3952">
      <stop
         style="stop-color:#911d85;stop-opacity:1;"
         offset="0"
         id="stop3954" />
      <stop
         style="stop-color:#4d6575;stop-opacity:1;"
         offset="1"
         id="stop3956" />
    </linearGradient>
    <clipPath
       id="clipPath-131538609">
      <g
         transform="translate(0,-1004.3622)"
         id="g17-8">
        <path
           style="fill:#1890d0"
           inkscape:connector-curvature="0"
           d="m -24,13 c 0,1.105 -0.672,2 -1.5,2 -0.828,0 -1.5,-0.895 -1.5,-2 0,-1.105 0.672,-2 1.5,-2 0.828,0 1.5,0.895 1.5,2 z"
           transform="matrix(15.333333,0,0,11.5,414.99999,878.8622)"
           id="path19-5" />
      </g>
    </clipPath>
    <linearGradient
       inkscape:collect="always"
       xlink:href="#linearGradient3836"
       id="linearGradient3842"
       x1="1"
       y1="24"
       x2="47"
       y2="24"
       gradientUnits="userSpaceOnUse"
       gradientTransform="matrix(0,-1,1,0,0,48)" />
  </defs>
  <g
     id="g21">
    <path
       d="m 36.31 5 c 5.859 4.062 9.688 10.831 9.688 18.5 c 0 12.426 -10.07 22.5 -22.5 22.5 c -7.669 0 -14.438 -3.828 -18.5 -9.688 c 1.037 1.822 2.306 3.499 3.781 4.969 c 4.085 3.712 9.514 5.969 15.469 5.969 c 12.703 0 23 -10.298 23 -23 c 0 -5.954 -2.256 -11.384 -5.969 -15.469 c -1.469 -1.475 -3.147 -2.744 -4.969 -3.781 z m 4.969 3.781 c 3.854 4.113 6.219 9.637 6.219 15.719 c 0 12.703 -10.297 23 -23 23 c -6.081 0 -11.606 -2.364 -15.719 -6.219 c 4.16 4.144 9.883 6.719 16.219 6.719 c 12.703 0 23 -10.298 23 -23 c 0 -6.335 -2.575 -12.06 -6.719 -16.219 z"
       opacity="0.05"
       id="path23" />
    <path
       d="m 41.28 8.781 c 3.712 4.085 5.969 9.514 5.969 15.469 c 0 12.703 -10.297 23 -23 23 c -5.954 0 -11.384 -2.256 -15.469 -5.969 c 4.113 3.854 9.637 6.219 15.719 6.219 c 12.703 0 23 -10.298 23 -23 c 0 -6.081 -2.364 -11.606 -6.219 -15.719 z"
       opacity="0.1"
       id="path25" />
    <path
       d="m 31.25 2.375 c 8.615 3.154 14.75 11.417 14.75 21.13 c 0 12.426 -10.07 22.5 -22.5 22.5 c -9.708 0 -17.971 -6.135 -21.12 -14.75 a 23 23 0 0 0 44.875 -7 a 23 23 0 0 0 -16 -21.875 z"
       opacity="0.2"
       id="path27" />
  </g>
  <path
     inkscape:connector-curvature="0"
     style="fill:url(#linearGradient3842);fill-opacity:1"
     id="path31"
     d="M 1,24 C 1,11.297 11.297,1 24,1 36.703,1 47,11.297 47,24 47,36.703 36.703,47 24,47 11.297,47 1,36.703 1,24 z" />
  <g
     id="g33" />
  <g
     id="g55">
    <path
       d="m 40.03 7.531 c 3.712 4.084 5.969 9.514 5.969 15.469 0 12.703 -10.297 23 -23 23 c -5.954 0 -11.384 -2.256 -15.469 -5.969 4.178 4.291 10.01 6.969 16.469 6.969 c 12.703 0 23 -10.298 23 -23 0 -6.462 -2.677 -12.291 -6.969 -16.469 z"
       id="path57"
       opacity="0.1" />
  </g>
  <path
     style="fill:#000000;fill-opacity:1;fill-rule:nonzero;stroke:none;opacity:0.1"
     d="m 25,13 c -5.521105,0 -10.000204,1.877136 -10,3.59375 l 0,16.8125 C 15.000204,35.118889 19.479896,37 25,37 c 5.524104,0 10.000204,-1.881111 10,-3.59375 l 0,-16.8125 C 34.999796,14.877136 30.524104,13 25,13 z"
     id="path3060"
     inkscape:connector-curvature="0" />
  <path
     d="M 23.998,12 C 18.476895,12 13.999796,13.889593 14,15.606207 l 0.002,16.791561 C 14.002204,34.110407 18.479896,36 24,36 29.524104,36 34.002204,34.110407 34.002,32.397768 L 34,15.606207 C 33.999796,13.889593 29.522104,12 23.998,12"
     id="path57-0"
     inkscape:connector-curvature="0"
     style="fill:#d2d2d2;fill-opacity:1;fill-rule:nonzero;stroke:none"
     sodipodi:nodetypes="csssssc" />
  <path
     style="fill:#999999;fill-opacity:1;fill-rule:nonzero;stroke:none"
     d="M 33,15.700001 C 33,17.356854 28.970563,19 24,19 19.029437,19 15,17.356854 15,15.700001 15,14.043147 19.029437,12.6 24,12.6 c 4.970563,0 9,1.443147 9,3.100001 z"
     id="path3141"
     inkscape:connector-curvature="0"
     sodipodi:nodetypes="sssss" />
</svg>

<svg xmlns="http://www.w3.org/2000/svg" viewBox="0 0 48 48"><defs><clipPath><g transform="translate(0,-1004.3622)"><path d="m -24 13 c 0 1.105 -0.672 2 -1.5 2 -0.828 0 -1.5 -0.895 -1.5 -2 0 -1.105 0.672 -2 1.5 -2 0.828 0 1.5 0.895 1.5 2 z" transform="matrix(15.333333,0,0,11.5,414.99999,878.8622)" fill="#1890d0"/></g></clipPath><linearGradient id="linearGradient3842" x1="1" x2="47" gradientUnits="userSpaceOnUse" gradientTransform="matrix(0,-1,1,0,0,48)"><stop stop-color="#62b890" stop-opacity="1"/><stop offset="1" stop-color="#70be9a" stop-opacity="1"/></linearGradient></defs><g><path d="m 36.31 5 c 5.859 4.062 9.688 10.831 9.688 18.5 c 0 12.426 -10.07 22.5 -22.5 22.5 c -7.669 0 -14.438 -3.828 -18.5 -9.688 c 1.037 1.822 2.306 3.499 3.781 4.969 c 4.085 3.712 9.514 5.969 15.469 5.969 c 12.703 0 23 -10.298 23 -23 c 0 -5.954 -2.256 -11.384 -5.969 -15.469 c -1.469 -1.475 -3.147 -2.744 -4.969 -3.781 z m 4.969 3.781 c 3.854 4.113 6.219 9.637 6.219 15.719 c 0 12.703 -10.297 23 -23 23 c -6.081 0 -11.606 -2.364 -15.719 -6.219 c 4.16 4.144 9.883 6.719 16.219 6.719 c 12.703 0 23 -10.298 23 -23 c 0 -6.335 -2.575 -12.06 -6.719 -16.219 z" opacity="0.05"/><path d="m 41.28 8.781 c 3.712 4.085 5.969 9.514 5.969 15.469 c 0 12.703 -10.297 23 -23 23 c -5.954 0 -11.384 -2.256 -15.469 -5.969 c 4.113 3.854 9.637 6.219 15.719 6.219 c 12.703 0 23 -10.298 23 -23 c 0 -6.081 -2.364 -11.606 -6.219 -15.719 z" opacity="0.1"/><path d="m 31.25 2.375 c 8.615 3.154 14.75 11.417 14.75 21.13 c 0 12.426 -10.07 22.5 -22.5 22.5 c -9.708 0 -17.971 -6.135 -21.12 -14.75 a 23 23 0 0 0 44.875 -7 a 23 23 0 0 0 -16 -21.875 z" opacity="0.2"/></g><path d="M 1,24 C 1,11.297 11.297,1 24,1 36.703,1 47,11.297 47,24 47,36.703 36.703,47 24,47 11.297,47 1,36.703 1,24 z" fill="url(#linearGradient3842)" fill-opacity="1"/><g><path d="m 40.03 7.531 c 3.712 4.084 5.969 9.514 5.969 15.469 0 12.703 -10.297 23 -23 23 c -5.954 0 -11.384 -2.256 -15.469 -5.969 4.178 4.291 10.01 6.969 16.469 6.969 c 12.703 0 23 -10.298 23 -23 0 -6.462 -2.677 -12.291 -6.969 -16.469 z" opacity="0.1"/></g><path d="m 25 13 c -5.521 0 -10 1.877 -10 3.594 l 0 16.813 c 0 1.713 4.48 3.594 10 3.594 c 5.524 0 10 -1.881 10 -3.594 l 0 -16.813 c 0 -1.717 -4.476 -3.594 -10 -3.594 z" opacity="0.1" fill="#000" fill-rule="nonzero" stroke="none" fill-opacity="1"/><path d="m 23.998 12 c -5.521 0 -9.998 1.89 -9.998 3.606 l 0.002 16.792 c 0 1.713 4.478 3.602 9.998 3.602 5.524 0 10 -1.89 10 -3.602 l -0.002 -16.792 c 0 -1.717 -4.478 -3.606 -10 -3.606" fill="#d2d2d2" fill-rule="nonzero" stroke="none" fill-opacity="1"/><path d="m 33 15.7 c 0 1.657 -4.03 3.3 -9 3.3 -4.971 0 -9 -1.643 -9 -3.3 0 -1.657 4.03 -3.1 9 -3.1 c 4.971 0 9 1.443 9 3.1 z" fill="#999" fill-rule="nonzero" stroke="none" fill-opacity="1"/></svg>
